X:1
T:Au ioly son
T:Pierre Passereau
T:Source : Livre premier contenant 29 chansons nouvelles à 4 parties---Paris---P.Attaignant---1536. Editor : André Vierendeels (31/12/17).
T:Au ioly son
T:©
T:©
T:©
T:©
T:©
T:©
T:©
C:Pierre Passereau
Z:©
%%score [ 1 [ 2 3 ] 4 ]
L:1/8
Q:1/4=120
M:2/2
K:C
V:1 treble nm="Soprano" snm="S"
V:2 treble-8 nm="Tenor 1" snm="T 1"
V:3 treble-8 nm="Tenor 2" snm="T 2"
V:4 bass nm="Bass" snm="B"
V:1
 G2 AB cBAG | A3 c B2 A2 | G2 z2 z4 | z4 G2 AB | cBAG A3 c | B2 A2 G2 z2 | z8 | z2 F2 E2 D2 | %8
w: Au io- ly son du san- son-|net ie m'en- dor-|my,|au io- ly|son du san- son- net ie|m'en- dor- my,||ie m'en- dor-|
 CGAB c2 G2 | AB c4 BA | B2 G4 A2- | AG G3 F F2 | E2 DC D4 | z2 c2 c2 B2 | A2 G3 A B2 | %15
w: my lau- tre nuic- té e,|ie m'en- dor- my lau-|tre nuic- *|* * té- * *|* * * e,|et là, ou-|y di- re ung|
 cA B2 c2 BA | GC G2 G2 D2 | F2 C3 DEF | GABc d2 c2- | c2 B2 c2 c2 | c2 B2 A4 | G6 G2 | A2 E2 F4 | %23
w: sou- * * * * *|hait qui tou- choit à|ma- my- * * *||* * e, qui|tou- * choit|à ma-|my- * *|
 E4 GABc | A2 G2 G4 | z4 GABc | A2 G2 z4 | GABc d2 c2- | c2 B2 c4 | z2 c2 cBAG | A2 G2 E2 c2- | %31
w: e, va, si te ma-|ri- e, va,|va, si te ma-|ri- e,|va, si te ma- ri- *|* e, va,|puis- qu'on _ _ _|les a bien à|
 cA B2 G2 A2- | A2 G4 F2 | G8 | z4 z2 G2 | c4 z2 c2 | cBAG FE D2 | E3 F G2 A2 | c2 cBAG FE | %39
w: _ _ _ _ _|* * les|say,|ia-|mais, ia-|mais, ie ne me ma- ri- ray|ia- mais, ia- mais|la mais _ _ _ je _|
 D2 A3 G G2- | G2 F2 G4 | z4 z2 G2 | c4 z2 c2 | cBAG FE D2 | E3 F G2 A2 | c2 cBAG FE | %46
w: ne me- * ma-|* ri- ray,|ia-|mais, ia-|mais ie ne me ma- ri- ray,|ia- mais, ia- mais,|ia- mais _ _ _ ie _|
 D2 A3 G G2- | G2 F2 !fermata!G4 |] %48
w: ne me- * ma-|* ri- ray.|
V:2
 z4 c2 de | fedc d2 f2 | e2 d2 c2 z2 | z8 | c2 de fedc | d2 f2 e2 d2 | ccde f2 c2- | c2 d2 e2 f2- | %8
w: Au io- ly|son du san- son- net ie|m'en- dor- my,||au io- ly son du san- son-|net ie m'en- dor-|my,lau- tre nuic- té- e, lau-|* tre nuic- té-|
 f2 e4 d2 | c2 f2 g2 d2 | g3 f e2 f2 | d2 e2 d4 | z4 z2 g2 | g2 f2 e2 g2 | f2 e4 d2 | %15
w: |e, lau- tre nuic-|té- * * *|* * e,|et|là, ou- y di-|re ung sou-|
 f2 g2 c2 g2- | gf e2 d2 G2 | A4 z2 G2 | c2 c2 F2 A2 | G4 c2 g2 | g2 d2 f2 c2- | cdef e2 d2- | %22
w: hait qui tou- choit|_ à ma- my- *|e,- qui|tou- choit à ma|my- e, qui|tou- choit _ à|_ _ _ _ _ ma-|
 dc c4 B2 | c4 efge | f2 e2 e4 | z4 efge | f2 e3 d/c/ d2 | e2 d3 e f2 | g4 e4 | z2 c2 c2 c2 | %30
w: * * my- *|e, va- si te ma-|ri- e, va,|va, si te ma-|ri- e, _ _ _|va, si te ma-|ri- e,|puis- qu'on les|
 f2 e2 c4 | d4 e2 f2 | e2 d4 c2 | d4 z2 d2 | g2 g2 gfed | cB A4 c2- | c2 f2 z2 g2 | gfed cB A2- | %38
w: a bien à|les- * *||say, ia-|mais, ia- mais, ie ne me|ma- ti- ray, ia-|* mais, ia-|mais, ie ne me ma- ri- ray,|
 A2 A2 d4- | d2 d2 d2 d2 | d2 d2 B2 d2 | g2 g2 gfed | cB A4 c2- | c2 f2 z2 g2 | gfed cB A2- | %45
w: _ ia- mais,|_ ie ne me|ma- ri- ray, ia-|mais, ia- mais, je ne me|ma- ri- ray, ia-|* mais, ia-|mais, _ _ _ ia- * mais,|
 A2 A2 d4- | d2 d2 d2 d2 | d2 d2 !fermata!B4 |] %48
w: _ ia- mais,|_ je ne ma|ma- ri- ray.|
V:3
 z8 | z4 G2 AB | cBAG A3 c | B2 A2 G2 z2 | z8 | G2 AB cBAG | A3 c B2 A2 | GGAB c2 A2 | z4 c2 de | %9
w: |Au io- ly|son du san- son- net ie|m'en- dor- my,||au io- ly son du san- son-|net ie m'en- dor-|my, lau- tre nuic- té- e,|au io- ly|
 fedc d3 f | e2 d2 c2 A2 | B2 c2 A3 B | c2 A2 G4 | c4 z4 | z4 g2 g2 | f2 eg fe d2- | d2 c4 B2 | %17
w: son du san- son- net ie|m'en- dor- my lau-|tre nuic- té- *||e,|et là,|ou- y di- re ung sou-|* hait qui|
 d2 A2 cBcd | efge feed/c/ | d4 c4 | z2 G2 d2 A2 | c6 B2 | A2 G4 F2 | G4 z4 | z4 GABc | A2 G2 G4 | %26
w: tou- choit à _ _ _|_ _ _ _ ma _ _ _ _|my- e,|qui tou- choit|à ma|my- * *|e,|va, si te ma-|ri- e, va,|
 z2 GA Bc A2 | G4 z2 cd | ef d2 cBAG | A2 G2 z4 | z2 c2 cBAG | A2 G2 E2 c2- | cB/A/ B2 AG c2- | %33
w: va, si te ma- ri-|e, va, si|te- ma- ri- e, _ _ _|_ va,|puis- qu'on _ _ _|les a bien à|_ _ _ _ _ _ les-|
 c2 BA B4 | z2 G2 c4 | z2 c2 f4 | f2 fe dccB | c2 e2 edcB | AB c2 z4 | f2 fe dcB A/G/ | A2 A2 G4 | %41
w: * * * say,|ia- mais,|ia- mais,|ia- mais, ie ne me ma- ri-|ray, ia- mais ie ne me|ma- ri- ray|ia- mais, ie ne me ma- ri- *|ray, ia- mais,|
 z2 G2 c4 | z2 c2 f4 | f2 fe dccB | c2 e2 edcB | AB c2 z4 | f2 fedc BA/G/ | A2 A2 !fermata!G4 |] %48
w: ia- mais,|ia- mais|ia- mais, ie ne me ma- ri-|ray, ia- mais, _ _ _|ia- * mais,|ie ne _ _ _ me _ _|ma- ri- ray.|
V:4
 z8 | z8 | C,2 D,E, F,E,D,C, | D,2 F,2 E,2 D,2 | C,2 z2 z4 | z4 C,2 D,E, | F,E,D,C, D,2 F,2 | %7
w: ||Au io- ly son du san- san-|net ie m'en- dor-|my,|au io- ly|son du san- son- net ie|
 E,2 D,2 C,C,D,E, | F,C, C4 B,2 | A,4 G,4 | G,4 C,2 F,2 | G,2 C,2 D,4 | C,2 C4 B,2 | C2 A,2 G,4 | %14
w: m'en- dor- my, lau- tre nuic-|té- e, ie m'en-|dor- my|lau- tre nuic-|té- * *|e, lau- tre|nuic- té- e,|
 z2 C2 C2 B,2 | A,2 G,2 A,2 B,2 | C2 C,2 G,2 G,2 | D,2 F,2 C,4 | z8 | z4 z2 C,2 | G,2 G,2 D,2 F,2 | %21
w: et là, ouy|dir' ung sou- hait|qui tou- choit a|ma my- e,||qui|tou- choit à ma-|
 C,B,,C,D, E,F,G,E, | F,E,E,D,/C,/ D,4 | C,4 z4 | z4 E,F,G,E, | F,2 E,2 E,4 | z2 E,F, G,E, F,2 | %27
w: my- * * * * * * *||e,|va, si te ma-|ri- e, va,|va, si te ma- ri-|
 E,2 G,A, B,C A,2 | G,4 C,4- | C,4 z4 | z2 C,2 C,2 C,2 | F,2 G,4 F,2 | G,4 A,4 | G,4 z4 | %34
w: e, va, si te ma- ri-|e, va,|_|puis- qu'on les|a bien à|les- *|say|
 G,2 G,F, E,D,C,B,, | A,,2 A,2 F,4- | F,4 z2 G,2 | C4 z2 C2 | CB,A,G, F,E, D,2- | D,E, F,2 G,4 | %40
w: ia- mais, ie ne me ma- ri-|ray, ia- mais,|_ ia-|mais, ia-|mais, ie ne me ma- ri- ray,|_ _ _ _|
 D,4 G,4 | G,2 G,F, E,D,C,B,, | A,,2 A,2 F,4- | F,4 z2 G,2 | C4 z2 C2 | CB,A,G, F,E, D,2- | %46
w: ia- mais,|ia- mais, ie ne me ma- ri-|ray, ia- mais,|_ ia-|mais ia-|mais, _ _ _ ie _ _|
 D,E, F,2 G,4 | D,4 !fermata!G,4 |] %48
w: _ ne me ma-|ri- ray.|

